!!!OTL: "Der Knab auf dem Berge" DORT OBN AUFM BERGERL
!!!ARE: Europa, Mitteleuropa, Oesterreich
!!!SCT: Z1360
!!!YEM: Copyright 1995, estate of Helmut Schaffrath.
**kern
*ICvox
*Ivox
*M3/8
*k[f#]
*G:
{8dd
=1
8dd
8cc
8b
=2
8cc
8dd
8ee
=3
4dd}
{8dd
=4
8.dd
16cc
8b
=5
8a
8b
8cc
=6
4b}
{8dd
=7
8.dd
16cc
8b
=8
8cc
8dd
8ee
=9
4dd}
{8dd
=10
8.dd
16cc
8b
=11
8a
8b
8cc
=12
4b}
{8dd
=13
8.dd
16cc
8b
=14
8cc
8dd
8ee
=15
4dd}
{8dd
=16
8dd
8cc
8b
=17
8a
8b
8a
=18
4g}
==
!!!AGN: Kinder - Lied
!!!ONB: ESAC (Essen Associative Code) Database: ZUCCAL
!!!AMT: simple triple
!!!AIN: vox
!!!EED: Helmut Schaffrath
!!!EEV: 1.0
*-
